im/target.svg

<svg version="1.1" xmlns="http://www.w3.org/2000/svg" viewBox="0 0 16 16" height="1em" width="1em">
  <path fill="#000000" d="M16 7h-1.577c-0.432-2.785-2.638-4.991-5.423-5.423v-1.577h-2v1.577c-2.785 0.432-4.991 2.638-5.423 5.423h-1.577v2h1.577c0.432 2.785 2.638 4.991 5.423 5.423v1.577h2v-1.577c2.785-0.432 4.991-2.638 5.423-5.423h1.577v-2zM12.388 7h-1.559c-0.301-0.852-0.977-1.528-1.829-1.829v-1.559c1.68 0.383 3.005 1.708 3.388 3.388zM8 9c-0.552 0-1-0.448-1-1s0.448-1 1-1c0.552 0 1 0.448 1 1s-0.448 1-1 1zM7 3.612v1.559c-0.852 0.301-1.528 0.977-1.829 1.829h-1.559c0.383-1.68 1.708-3.005 3.388-3.388zM3.612 9h1.559c0.301 0.852 0.977 1.528 1.829 1.829v1.559c-1.68-0.383-3.005-1.708-3.388-3.388zM9 12.388v-1.559c0.852-0.301 1.528-0.977 1.829-1.829h1.559c-0.383 1.68-1.708 3.005-3.388 3.388z"/>
</svg>

<svg xmlns="http://www.w3.org/2000/svg" viewBox="0 0 16 16" height="1em" width="1em">
  <path d="M16 7h-1.577A6.516 6.516 0 0 0 9 1.577V0H7v1.577A6.516 6.516 0 0 0 1.577 7H0v2h1.577A6.516 6.516 0 0 0 7 14.423V16h2v-1.577A6.516 6.516 0 0 0 14.423 9H16V7zm-3.612 0h-1.559A3.008 3.008 0 0 0 9 5.171V3.612A4.516 4.516 0 0 1 12.388 7zM8 9a1 1 0 1 1 0-2 1 1 0 0 1 0 2zM7 3.612v1.559A3.008 3.008 0 0 0 5.171 7H3.612A4.516 4.516 0 0 1 7 3.612zM3.612 9h1.559A3.008 3.008 0 0 0 7 10.829v1.559A4.516 4.516 0 0 1 3.612 9zM9 12.388v-1.559A3.008 3.008 0 0 0 10.829 9h1.559A4.516 4.516 0 0 1 9 12.388z"/>
</svg>
